X:130
T:AIR XLI. My Wife's a wanton Wi Thing.
O:england
B:Joseph Mitchell: "The Highland Fair" (1731)
N:there's no natural sign in bar 4 in the book, but there is a
N:sharp - presumably the previous natural was meant to persist
M:6/4
L:1/4
K:D
d2A (B/c/)dA|d3 A2B   |=c>dc cGE|=c3 C2
^c   |d2A  B/c/ dA|d3 A2G   | FDF  ECE| D3-D2||
F/G/|A>BA FDF    |A3 F2E/F/| G>AG ECE| G3 E2
F/G/|A>BA FDF    |A3 a2g   | fdf  ece| d3-d2|]


